img/mastodon-4.svg

<svg fill="none" height="33" viewBox="0 0 32 33" width="32" xmlns="http://www.w3.org/2000/svg"><path d="m28.0703 19.1792c-.373 1.9187-3.3404 4.0185-6.7484 4.4255-1.7772.2121-3.5269.407-5.3927.3214-3.0514-.1398-5.4592-.7284-5.4592-.7284 0 .2971.0184.5799.055.8444.3967 3.0114 2.986 3.1918 5.4387 3.2759 2.4756.0847 4.68-.6103 4.68-.6103l.1017 2.238s-1.7316.9298-4.8162 1.1009c-1.701.0934-3.813-.0428-6.27293-.6939-5.33513-1.4122-6.25265-7.0991-6.39305-12.8695-.04279-1.7133-.01641-3.3288-.01641-4.68 0-5.90047 3.86602-7.63 3.86602-7.63 1.94935-.89525 5.29427-1.27172 8.77167-1.30015h.0854c3.4774.02843 6.8245.4049 8.7737 1.30015 0 0 3.8658 1.72953 3.8658 7.63 0 0 .0485 4.3535-.5391 7.376z" fill="#2b90d9"/><path d="m24.0494 12.2609v7.1446h-2.8306v-6.9346c0-1.4618-.615-2.2037-1.8453-2.2037-1.3602 0-2.0419.8801-2.0419 2.6205v3.7957h-2.8139v-3.7957c0-1.7404-.6818-2.6205-2.0421-2.6205-1.2302 0-1.8453.7419-1.8453 2.2037v6.9346h-2.8305v-7.1446c0-1.4601.37179-2.6205 1.11859-3.47896.77009-.85847 1.77861-1.29854 3.03051-1.29854 1.4485 0 2.5454.55673 3.2707 1.67032l.705 1.18188.7052-1.18188c.7251-1.11359 1.822-1.67032 3.2706-1.67032 1.2518 0 2.2603.44007 3.0305 1.29854.7467.85846 1.1185 2.01886 1.1185 3.47896z" fill="#fff"/></svg>

<svg width="32" height="33" viewBox="0 0 32 33" fill="none" xmlns="http://www.w3.org/2000/svg">
<path d="M28.0703 19.1792C27.6973 21.0979 24.7299 23.1977 21.3219 23.6047C19.5447 23.8168 17.795 24.0117 15.9292 23.9261C12.8778 23.7863 10.47 23.1977 10.47 23.1977C10.47 23.4948 10.4884 23.7776 10.525 24.0421C10.9217 27.0535 13.511 27.2339 15.9637 27.318C18.4393 27.4027 20.6437 26.7077 20.6437 26.7077L20.7454 28.9457C20.7454 28.9457 19.0138 29.8755 15.9292 30.0466C14.2282 30.14 12.1162 30.0038 9.65627 29.3527C4.32114 27.9405 3.40362 22.2536 3.26322 16.4832C3.22043 14.7699 3.24681 13.1544 3.24681 11.8032C3.24681 5.90273 7.11283 4.1732 7.11283 4.1732C9.06218 3.27795 12.4071 2.90148 15.8845 2.87305H15.9699C19.4473 2.90148 22.7944 3.27795 24.7436 4.1732C24.7436 4.1732 28.6094 5.90273 28.6094 11.8032C28.6094 11.8032 28.6579 16.1567 28.0703 19.1792Z" fill="#2B90D9"/>
<path d="M24.0494 12.2609V19.4055H21.2188V12.4709C21.2188 11.0091 20.6038 10.2672 19.3735 10.2672C18.0133 10.2672 17.3316 11.1473 17.3316 12.8877V16.6834H14.5177V12.8877C14.5177 11.1473 13.8359 10.2672 12.4756 10.2672C11.2454 10.2672 10.6303 11.0091 10.6303 12.4709V19.4055H7.7998V12.2609C7.7998 10.8008 8.17159 9.6404 8.91839 8.78194C9.68848 7.92347 10.697 7.4834 11.9489 7.4834C13.3974 7.4834 14.4943 8.04013 15.2196 9.15372L15.9246 10.3356L16.6298 9.15372C17.3549 8.04013 18.4518 7.4834 19.9004 7.4834C21.1522 7.4834 22.1607 7.92347 22.9309 8.78194C23.6776 9.6404 24.0494 10.8008 24.0494 12.2609Z" fill="white"/>
</svg>
